icons/core/alarm.svg

<svg width="32" height="32" viewBox="0 0 32 32" xmlns="http://www.w3.org/2000/svg"><path fill-rule="evenodd" clip-rule="evenodd" d="M8.70724 3.20713L2.70718 9.20713L1.29297 7.79291L7.29303 1.79291L8.70724 3.20713ZM30.7072 7.79291L24.7072 1.79291L23.293 3.20712L29.293 9.20712L30.7072 7.79291ZM26.0001 17C26.0001 22.5229 21.5229 27 16.0001 27C10.4772 27 6.00007 22.5229 6.00007 17C6.00007 11.4772 10.4772 7.00001 16.0001 7.00001C21.5229 7.00001 26.0001 11.4772 26.0001 17ZM28.0001 17C28.0001 23.6274 22.6275 29 16.0001 29C9.37265 29 4.00007 23.6274 4.00007 17C4.00007 10.3726 9.37265 5.00001 16.0001 5.00001C22.6275 5.00001 28.0001 10.3726 28.0001 17ZM15.0001 9.99999V17.5C15.0001 18.1295 15.2965 18.7223 15.8001 19.1L19.4001 21.8L20.6001 20.2L17.0001 17.5V9.99999H15.0001Z"/></svg>

<svg viewBox="0 0 32 32" xmlns="http://www.w3.org/2000/svg"><path fill-rule="evenodd" d="M8.707 3.207l-6 6-1.414-1.414 6-6 1.414 1.414zm22 4.586l-6-6-1.414 1.414 6 6 1.414-1.414zM26 17c0 5.523-4.477 10-10 10S6 22.523 6 17 10.477 7 16 7s10 4.477 10 10zm2 0c0 6.627-5.372 12-12 12-6.627 0-12-5.373-12-12S9.373 5 16 5c6.628 0 12 5.373 12 12zm-13-7v7.5a2 2 0 00.8 1.6l3.6 2.7 1.2-1.6-3.6-2.7V10h-2z"/></svg>
